svg/python.svg

<svg viewBox="0 0 20 20" xmlns="http://www.w3.org/2000/svg">
<rect width="100%" height="100%" fill="#5A9FD4"/>
<path d="M9.90587 1.99998C9.29457 2.00073 8.68442 2.05292 8.08187 2.15598C6.46587 2.44198 6.17387 3.03798 6.17387 4.13998V5.59998H9.99987V6.07998H4.73987C3.63187 6.07998 2.65987 6.74598 2.35587 8.01398C1.99987 9.46798 1.99987 10.376 2.35587 11.894C2.62787 13.024 3.27587 13.83 4.38387 13.83H5.69787V12.086C5.71173 11.4592 5.96772 10.8621 6.41217 10.4199C6.85661 9.97765 7.455 9.72468 8.08187 9.71398H11.8939C12.1464 9.71189 12.3961 9.66003 12.6286 9.56138C12.8612 9.46273 13.072 9.31921 13.249 9.13904C13.426 8.95886 13.5658 8.74557 13.6603 8.51134C13.7548 8.27711 13.8022 8.02655 13.7999 7.77398V4.13998C13.7999 3.10598 12.9279 2.32798 11.8919 2.15598C11.2354 2.04868 10.5711 1.9965 9.90587 1.99998V1.99998ZM7.84187 3.16998C7.98625 3.1676 8.12809 3.20821 8.24933 3.28666C8.37057 3.3651 8.46574 3.47783 8.52275 3.61051C8.57975 3.74319 8.596 3.88983 8.56944 4.03177C8.54289 4.17371 8.47471 4.30455 8.3736 4.40765C8.27248 4.51074 8.14299 4.58143 8.00158 4.61074C7.86018 4.64004 7.71326 4.62662 7.5795 4.5722C7.44574 4.51778 7.33119 4.42481 7.25041 4.30511C7.16964 4.18541 7.12628 4.04439 7.12587 3.89998C7.12427 3.7083 7.19874 3.52382 7.33296 3.38697C7.46718 3.25013 7.6502 3.17209 7.84187 3.16998V3.16998Z" fill="white"/>
<path d="M14.2778 6.08002V7.77402C14.2723 8.40851 14.0207 9.01609 13.576 9.46867C13.1312 9.92124 12.5281 10.1835 11.8938 10.2H8.08183C7.57353 10.2105 7.08946 10.4192 6.73296 10.7817C6.37647 11.1441 6.17581 11.6316 6.17383 12.14V15.77C6.17383 16.804 7.07183 17.412 8.08183 17.708C9.32274 18.0969 10.6529 18.0969 11.8938 17.708C12.8558 17.43 13.7998 16.87 13.7998 15.77V14.314H9.99983V13.83H15.7118C16.8198 13.83 17.2338 13.056 17.6198 11.894C18.0198 10.694 18.0018 9.54802 17.6198 8.01402C17.3458 6.91002 16.8198 6.08002 15.7118 6.08002H14.2778ZM12.1338 15.28C12.2784 15.2776 12.4204 15.3183 12.5417 15.397C12.663 15.4756 12.7582 15.5886 12.8151 15.7215C12.872 15.8544 12.888 16.0012 12.8611 16.1433C12.8342 16.2853 12.7657 16.4162 12.6642 16.5191C12.5626 16.622 12.4328 16.6924 12.2911 16.7213C12.1494 16.7501 12.0024 16.7361 11.8687 16.6811C11.735 16.6261 11.6207 16.5325 11.5404 16.4122C11.4601 16.292 11.4175 16.1506 11.4178 16.006C11.4173 15.8154 11.4924 15.6324 11.6266 15.497C11.7608 15.3617 11.9432 15.2851 12.1338 15.284V15.28Z" fill="white"/>
</svg>

<svg xmlns="http://www.w3.org/2000/svg" viewBox="0 0 20 20">
  <rect width="100%" height="100%" fill="#5A9FD4"/>
  <path fill="#fff" d="M9.9 2c-.6 0-1.22.05-1.82.16-1.61.28-1.9.88-1.9 1.98V5.6H10v.48H4.74c-1.1 0-2.08.67-2.38 1.93a7.18 7.18 0 0 0 0 3.88c.27 1.13.92 1.94 2.02 1.94H5.7v-1.74A2.43 2.43 0 0 1 8.08 9.7h3.81a1.92 1.92 0 0 0 1.91-1.94V4.14c0-1.03-.87-1.81-1.9-1.98-.66-.11-1.33-.16-2-.16ZM7.85 3.17a.73.73 0 1 1 .03 1.46.73.73 0 0 1-.03-1.46Z"/>
  <path fill="#fff" d="M14.28 6.08v1.7a2.45 2.45 0 0 1-2.39 2.42H8.1a1.95 1.95 0 0 0-1.92 1.94v3.63c0 1.03.9 1.64 1.91 1.94 1.24.39 2.57.39 3.81 0 .97-.28 1.91-.84 1.91-1.94v-1.46H10v-.48h5.71c1.11 0 1.52-.77 1.91-1.94.4-1.2.38-2.34 0-3.88-.27-1.1-.8-1.93-1.9-1.93h-1.44Zm-2.15 9.2a.73.73 0 1 1-.5.22.72.72 0 0 1 .5-.22Z"/>
</svg>
